X:1
T:Deva, 65.65 D
T:Deva, 65.65 D
T:Edward J. Hopkins, 1888
T:Public Domain Courtesy of the Cyber Hymnal™
C:Edward J. Hopkins, 1888
Z:Public Domain
Z:Courtesy of the Cyber Hymnal™
%%score ( 1 2 ) ( 3 4 )
L:1/8
Q:1/4=130
M:4/4
K:D
V:1 treble 
V:2 treble 
V:3 bass 
V:4 bass 
V:1
 [DF]2 [CE]2 [DF]2 [EG]2 | [FA]4 [FA]4 | [GB]2 [Bd]2 [Ac]2 [GB]2 | [FA]8 | %4
 [EA]2 [GB]2 [FA]2 [EG]2 | ([DF]2 [EG]2) [DA]4 | [DB]2 [FA]2 [EG]2 [DF]2 | ([DF]4 [CE]4) | %8
 E2 [EF]2 [E^G]2 [EA]2 | [DA]4 (^G2 F2) | E2 [E^G]2 [GB]2 [Gd]2 | (d4 c4) | %12
 [Ee]2 [Ec]2 [EA]2 [^E^G]2 | F2 [Fd]2 [Fc]2 [FB]2 | e8 [E=G]4 | A4 G4 | [DF]2 [CE]2 [DF]2 [EG]2 | %17
 [DA]4 [FA]4 | [GB]2 [Gd]2 [Gc]2 [FB]2 | A8 | G2 [DA]2 [GB]2 [Ec]2 | [Dd]4 [DA]4 | %22
 [B,G]2 [DF]2 [CF]2 [CE]2 | D8 |] %24
V:2
 x8 | x8 | x8 | x8 | x8 | x8 | x8 | x8 | E2 x6 | x4 D4 | E2 x6 | A8 | x8 | F2 x6 | (^G2 F2) x8 | %15
 (E2 C2 D2 E2) | x8 | x8 | x8 | (E4 F4) | G2 x6 | x8 | x8 | D8 |] %24
V:3
 [D,A,]2 [D,A,]2 [D,A,]2 [D,A,]2 | [D,A,]4 [D,D]4 | [G,D]2 G,2 G,2 [G,B,]2 | [D,D]8 | %4
 [C,A,]2 [C,A,]2 [A,,C]2 [A,,C]2 | [D,D]4 [F,D]4 | [G,D]2 [G,D]2 [G,,B,]2 [G,,B,]2 | [A,,A,]8 | %8
 [A,C]2 [A,C]2 [C,A,]2 [C,A,]2 | (E,2 F,2) ([B,,^G,]2 [A,,A,]2) | %10
 [^G,,B,]2 [G,,B,]2 [E,D]2 [E,B,]2 | [F,A,]8 | [C,A,]2 [C,A,]2 [C,A,]2 [C,B,]2 | %13
 [D,A,]2 [B,,D]2 [C,E]2 [D,D]2 | (B,2 A,2) (B,2 D2) x4 | (C2 A,2 B,2 C2) | %16
 [D,D]2 [D,E]2 [B,D]2 [B,D]2 | [F,A,]4 [D,D]4 | [G,D]2 [G,B,]2 [E,C]2 [E,D]2 | ([A,C]4 [D,=C]4) | %20
 [G,B,]2 [F,A,]2 [E,G,]2 [A,,G,]2 | [B,,F,]4 [F,,F,A,]4 | [G,,G,B,]2 [G,,B,]2 [A,,G,]2 [A,,G,]2 | %23
 [D,F,]8 |] %24
V:4
 x8 | x8 | x8 | x8 | x8 | x8 | x8 | x8 | x8 | B,,4 x4 | x8 | x8 | x8 | x8 | E,4 E,4 x4 | A,,8 | %16
 x8 | x8 | x8 | x8 | x8 | x8 | x8 | x8 |] %24

